X: 1654
T: The Star Hornpipe
M:2/4
L:1/16
B:O'Neill's 1654
N:"collected by J.O'Neill"
Z:The key signature is at odds with the c sharps in the original. Key should be G?
K:D
B-c \
| d^cdf gecA | GFGB D2E-F | GFGA BABc | dcdf A2B-c |
| d^cdf gecA | GFGB D2E-F | Gedc BAGF | A2G2G2 :|
|:c-B \
| A^GAB cBcd | e^def g2g-f | edcBcBAG | F2D2D2 B-c |
| d^cdf gecA | GFGB D2E-F | Gedc BAGF | A2G2G2 :|


